X: 29320
T: New Year's Eve
R: reel
M: 4/4
K: Gmajor
|:Bc|d2Bd cABG|DGBd g2fg|aAAB cBAG|ABcd eage|
d2Bd cABG|DGBd g2fg|agef g2fd|cAFA G2:|
|:Bc|dg~g2 dgBg|dGBd gfed|ea~a2 ea^ca|eA^ce gfef|
dg~g2 dgBg|dGBd gabg|agef g2fd|cAFA G2:|

